landslide-outline.svg

<svg fill="currentColor" viewBox="0 0 24 24"><path d="M11 12 8 8H2v14h20l-6-8zm1.53 2.77L6 16.95l-2-.67v-1.89l2 .67 3.95-1.32zM7 10l1.57 2.09-2.57.86-2-.67V10zM4 20v-1.61l2 .67 9.03-3.01L18 20zM17 6V1l-5-1-3 2v4l3 2zm-6-2.93 1.42-.95 2.58.52v2.01l-2.77 1.11L11 4.93zM18.5 7 16 9v3l2.5 2 4.5-2V8zm2.5 3.7-2.2.98-.8-.64V9.96l1-.8 2 .44z"/></svg>

<svg  viewBox="0 0 24 24" fill="currentColor"><path  d="M11 12L8 8H2V22H22L16 14L11 12M12.53 14.77L6 16.95L4 16.28V14.39L6 15.06L9.95 13.74L12.53 14.77M7 10L8.57 12.09L6 12.95L4 12.28V10H7M4 20V18.39L6 19.06L15.03 16.05L18 20H4M17 6V1L12 0L9 2V6L12 8L17 6M11 3.07L12.42 2.12L15 2.64V4.65L12.23 5.76L11 4.93V3.07M18.5 7L16 9V12L18.5 14L23 12V8L18.5 7M21 10.7L18.8 11.68L18 11.04V9.96L19 9.16L21 9.6V10.7Z"/></svg>
